X:1
T:Gospel Echoes
T:R. G. Staples, 1877
T:Gospel Echoes
T:Public Domain
C:R. G. Staples, 1877
Z:Public Domain
%%score ( 1 2 ) 3
L:1/8
M:6/8
K:F
V:1 treble 
V:2 treble 
V:3 bass 
V:1
 [Fc] | [FA]2 [CF] [EG]2 [EA] | F3- F2 [Fc] | [Fd]2 [DB] [DB]2 [Fd] | [Fc]3- [Fc]2 [Fc] | %5
w: 1.~The|Gos- pel mes- sage|sent— * Is|choed back a- gain,|From * lips|
w: 2.~The|e- cho from each|heart, * In|swer to the call—|Is * “Here|
w: 3.~Its|e- choing strains are|heard * From|ace and from cot—|From * lips|
w: 4.~Oh,|let the Gos- pel|sound * In|the land a- broad,|And * send|
 [Fd]2 [Fd] [Ff]2 [Fd] | [Fc]3- [Fc]2 [FA] | [EG]2 F [FA]2 [EG] | F3- F2 [Fc] | %9
w: in prayer and praise,|And * this|the sweet re- frain:|Je- * sus|
w: am I, O Lord—|Lo! * at|Thy feet I fall;|Lamb * of|
w: of age and youth—|His * blood|can cleanse each spot;|Lamb * of|
w: the e- cho round,|In * hon-|or of our Lord—|Lamb * of|
 [Af]2 [FA] [FB]2 [Fc] | [Fd]3- [Fd]2 [Fd] | [Ec]2 F [FA]2 [EG] | F3- F2 |] %13
w: for me— Dear Lamb|of * Cal-|va- ry. * *||
w: va- ry, I trust|a- * lone|in Thee.” * *||
w: va- ry, I come,|I * come|to Thee. * *||
w: va- ry, Has died|to * ran-|som Thee. * *||
V:2
 x | x6 | F3- F2 x | x6 | x6 | x6 | x6 | x2 F x3 | F3- F2 x | x6 | x6 | x2 F x3 | F3- F2 |] %13
w: ||e- *|||||That|died *|||||
w: ||an- *|||||Thou|Cal- *|||||
w: ||pal- *|||||Dear|Cal- *|||||
w: ||all *|||||The|Cal- *|||||
V:3
 [F,A,] | [F,C]2 [F,A,] [C,B,]2 [C,C] | [F,A,]3- [F,A,]2 [F,A,] | %3
 [B,,B,]2 [B,,B,] [B,,B,]2 [B,,B,] | [F,A,]3- [F,A,]2 [F,A,] | [B,,B,]2 [B,,B,] [B,,D]2 [D,B,] | %6
 [F,A,]3- [F,A,]2 [F,C] | [C,B,]2 [C,A,] [C,C]2 [C,B,] | [F,A,]3- [F,A,]2 [F,A,] | %9
 [F,C]2 [F,C] [D,B,]2 [C,A,] | [B,,B,]3- [B,,B,]2 [B,,B,] | [C,G,]2 [F,A,] [C,C]2 [C,B,] | %12
 [F,A,]3- [F,A,]2 |] %13

